symbolic/48x48/apps/boomaga.svg

<svg xmlns="http://www.w3.org/2000/svg" width="48" height="48" version="1"><rect style="opacity:.2" width="17" height="40" x="-33" y="-44" rx="2" ry="2" transform="matrix(0 -1 -1 0 0 0)"/><path style="opacity:.2" d="M8 28v15c0 1.108.892 2 2 2h28c1.108 0 2-.892 2-2V28H8z"/><path style="fill:#b2bfd9" d="M10 4c-1.108 0-2 .892-2 2v12h32V6c0-1.108-.892-2-2-2H10z"/><rect fill="#4f4f4f" width="17" height="40" x="-32" y="-44" rx="2" ry="2" transform="matrix(0 -1 -1 0 0 0)"/><path fill="#fff" opacity=".1" d="M6 15.004c-1.108 0-2 .892-2 2v1c0-1.108.892-2 2-2h36c1.108 0 2 .892 2 2v-1c0-1.108-.892-2-2-2H6z"/><path style="opacity:.2" d="M6 25h36v4H6z"/><rect style="opacity:.2" width="4" height="4" x="6" y="18" rx="1.5" ry="1.5"/><rect style="fill:#76ff03" width="4" height="4" x="6" y="17" rx="1.5" ry="1.5"/><path style="fill:#b2bfd9" d="M8 27v15c0 1.108.892 2 2 2h28c1.108 0 2-.892 2-2V27H8z"/><path style="fill:#f4f4f7;opacity:.2" d="M10 4c-1.108 0-2 .892-2 2v1c0-1.108.892-2 2-2h28c1.108 0 2 .892 2 2V6c0-1.108-.892-2-2-2H10z"/><path style="opacity:.5" d="M12 38h21v2H12zM12 34h17v2H12zM12 30h24v2H12z"/><path style="fill:#f4f4f7;opacity:.2" d="M7.5 17c-.831 0-1.5.669-1.5 1.5v1c0-.831.669-1.5 1.5-1.5h1c.831 0 1.5.669 1.5 1.5v-1c0-.831-.669-1.5-1.5-1.5h-1z"/><circle style="opacity:.2" cx="36" cy="36" r="11"/><circle style="fill:#c03630" cx="36" cy="35" r="11"/><path style="fill:#f4f4f7" d="M39 28c.004 0 0 1.333 0 2h-3v5h3v2l5-4.5-5-4.5zm-3 7h-3c0-.667-.004-2 0-2l-5 4.5 5 4.5v-2h3v-5z"/></svg>

<svg xmlns="http://www.w3.org/2000/svg" width="48" height="48" version="1">
 <rect style="opacity:0.2" width="17" height="40" x="-33" y="-44" rx="2" ry="2" transform="matrix(0,-1,-1,0,0,0)"/>
 <path style="opacity:0.2" d="m 8,28 0,15 c 0,1.108 0.892,2 2,2 l 28,0 c 1.108,0 2,-0.892 2,-2 L 40,28 8,28 Z"/>
 <path style="fill:#b2bfd9" d="M 10 4 C 8.892 4 8 4.892 8 6 L 8 18 L 40 18 L 40 6 C 40 4.892 39.108 4 38 4 L 10 4 z"/>
 <rect fill="#4f4f4f" width="17" height="40" x="-32" y="-44" rx="2" ry="2" transform="matrix(0,-1,-1,0,0,0)"/>
 <path fill="#fff" opacity=".1" d="m6 15.004c-1.108 0-2 0.892-2 2v1c0-1.108 0.892-2 2-2h36c1.108 0 2 0.892 2 2v-1c0-1.108-0.892-2-2-2h-36z"/>
 <rect style="opacity:0.2" width="36" height="4" x="6" y="25"/>
 <rect style="opacity:0.2" width="4" height="4" x="6" y="18" rx="1.5" ry="1.5"/>
 <rect style="fill:#76ff03" width="4" height="4" x="6" y="17" rx="1.5" ry="1.5"/>
 <path style="fill:#b2bfd9" d="M 8 27 L 8 42 C 8 43.108 8.892 44 10 44 L 38 44 C 39.108 44 40 43.108 40 42 L 40 27 L 8 27 z"/>
 <path style="fill:#f4f4f7;opacity:0.2" d="M 10 4 C 8.892 4 8 4.892 8 6 L 8 7 C 8 5.892 8.892 5 10 5 L 38 5 C 39.108 5 40 5.892 40 7 L 40 6 C 40 4.892 39.108 4 38 4 L 10 4 z"/>
 <rect style="opacity:0.5" width="21" height="2" x="12" y="38"/>
 <rect style="opacity:0.5" width="17" height="2" x="12" y="34"/>
 <rect style="opacity:0.5" width="24" height="2" x="12" y="30"/>
 <path style="fill:#f4f4f7;opacity:0.2" d="M 7.5 17 C 6.669 17 6 17.669 6 18.5 L 6 19.5 C 6 18.669 6.669 18 7.5 18 L 8.5 18 C 9.331 18 10 18.669 10 19.5 L 10 18.5 C 10 17.669 9.331 17 8.5 17 L 7.5 17 z"/>
 <circle style="opacity:0.2" cx="36" cy="36" r="11"/>
 <circle style="fill:#c03630" cx="36" cy="35" r="11"/>
 <path style="fill:#f4f4f7" d="m 39,28 c 0.004,0 0,1.3333 0,2 l -3,0 0,5 3,0 0,2 5,-4.5 -5,-4.5 z m -3,7 -3,0 c 0,-0.6667 -0.004,-2 0,-2 l -5,4.5 5,4.5 0,-2 3,0 0,-5 z"/>
</svg>
